svgs/thin/calendar-clock.svg

<svg xmlns="http://www.w3.org/2000/svg" viewBox="0 0 576 512"><!--! Font Awesome Pro 6.6.0 by @fontawesome - https://fontawesome.com License - https://fontawesome.com/license (Commercial License) Copyright 2024 Fonticons, Inc. --><path d="M120 0c4.4 0 8 3.6 8 8l0 56 192 0 0-56c0-4.4 3.6-8 8-8s8 3.6 8 8l0 56 48 0c35.3 0 64 28.7 64 64l0 48 0 16 0 .7c-5.3-.5-10.6-.7-16-.7L16 192l0 256c0 26.5 21.5 48 48 48l247.2 0c6.1 5.8 12.7 11.1 19.6 16L64 512c-35.3 0-64-28.7-64-64L0 192l0-16 0-48C0 92.7 28.7 64 64 64l48 0 0-56c0-4.4 3.6-8 8-8zm-8 120l0-40L64 80c-26.5 0-48 21.5-48 48l0 48 416 0 0-48c0-26.5-21.5-48-48-48l-48 0 0 40c0 4.4-3.6 8-8 8s-8-3.6-8-8l0-40L128 80l0 40c0 4.4-3.6 8-8 8s-8-3.6-8-8zM432 496a128 128 0 1 0 0-256 128 128 0 1 0 0 256zm0-272a144 144 0 1 1 0 288 144 144 0 1 1 0-288zm0 64c4.4 0 8 3.6 8 8l0 64 48 0c4.4 0 8 3.6 8 8s-3.6 8-8 8l-56 0c-4.4 0-8-3.6-8-8l0-72c0-4.4 3.6-8 8-8z"/></svg>

<svg xmlns="http://www.w3.org/2000/svg" viewBox="0 0 576 512"><!--! Font Awesome Pro 6.4.2 by @fontawesome - https://fontawesome.com License - https://fontawesome.com/license (Commercial License) Copyright 2023 Fonticons, Inc. --><path d="M120 0c4.4 0 8 3.6 8 8V64H320V8c0-4.4 3.6-8 8-8s8 3.6 8 8V64h48c35.3 0 64 28.7 64 64v48 16 .7c-5.3-.5-10.6-.7-16-.7H16V448c0 26.5 21.5 48 48 48H311.2c6.1 5.8 12.7 11.1 19.6 16H64c-35.3 0-64-28.7-64-64V192 176 128C0 92.7 28.7 64 64 64h48V8c0-4.4 3.6-8 8-8zm-8 120V80H64c-26.5 0-48 21.5-48 48v48H432V128c0-26.5-21.5-48-48-48H336v40c0 4.4-3.6 8-8 8s-8-3.6-8-8V80H128v40c0 4.4-3.6 8-8 8s-8-3.6-8-8zM432 496a128 128 0 1 0 0-256 128 128 0 1 0 0 256zm0-272a144 144 0 1 1 0 288 144 144 0 1 1 0-288zm0 64c4.4 0 8 3.6 8 8v64h48c4.4 0 8 3.6 8 8s-3.6 8-8 8H432c-4.4 0-8-3.6-8-8V296c0-4.4 3.6-8 8-8z"/></svg>
